svgs/solid/table-cells.svg

<svg xmlns="http://www.w3.org/2000/svg" viewBox="0 0 512 512"><!--! Font Awesome Free 6.6.0 by @fontawesome - https://fontawesome.com License - https://fontawesome.com/license/free (Icons: CC BY 4.0, Fonts: SIL OFL 1.1, Code: MIT License) Copyright 2024 Fonticons, Inc. --><path d="M64 32C28.7 32 0 60.7 0 96L0 416c0 35.3 28.7 64 64 64l384 0c35.3 0 64-28.7 64-64l0-320c0-35.3-28.7-64-64-64L64 32zm88 64l0 64-88 0 0-64 88 0zm56 0l88 0 0 64-88 0 0-64zm240 0l0 64-88 0 0-64 88 0zM64 224l88 0 0 64-88 0 0-64zm232 0l0 64-88 0 0-64 88 0zm64 0l88 0 0 64-88 0 0-64zM152 352l0 64-88 0 0-64 88 0zm56 0l88 0 0 64-88 0 0-64zm240 0l0 64-88 0 0-64 88 0z"/></svg>

<svg xmlns="http://www.w3.org/2000/svg" viewBox="0 0 512 512"><!--! Font Awesome Free 6.5.2 by @fontawesome - https://fontawesome.com License - https://fontawesome.com/license/free (Icons: CC BY 4.0, Fonts: SIL OFL 1.1, Code: MIT License) Copyright 2024 Fonticons, Inc. --><path d="M64 32C28.7 32 0 60.7 0 96V416c0 35.3 28.7 64 64 64H448c35.3 0 64-28.7 64-64V96c0-35.3-28.7-64-64-64H64zm88 64v64H64V96h88zm56 0h88v64H208V96zm240 0v64H360V96h88zM64 224h88v64H64V224zm232 0v64H208V224h88zm64 0h88v64H360V224zM152 352v64H64V352h88zm56 0h88v64H208V352zm240 0v64H360V352h88z"/></svg>
